public/assets/images/feature/12.svg

<svg width="60" height="60" viewBox="0 0 60 60" fill="none" xmlns="http://www.w3.org/2000/svg">
<path d="M51.5625 15.9375C51.8109 15.9375 52.05 15.8391 52.2253 15.6628L55.9753 11.9128C56.1516 11.7375 56.25 11.4984 56.25 11.25V7.3275C57.3384 6.93937 58.125 5.90812 58.125 4.6875C58.125 3.13687 56.8631 1.875 55.3125 1.875C53.7619 1.875 52.5 3.13687 52.5 4.6875C52.5 5.90812 53.2866 6.93937 54.375 7.3275V10.8619L51.1744 14.0625H39.8128C39.1322 13.6416 38.4356 13.2497 37.7128 12.9225C37.6444 12.8916 37.5722 12.8775 37.5 12.8644V8.82562L40.7006 5.625H42.36C42.7481 6.71344 43.7794 7.5 45 7.5C46.5506 7.5 47.8125 6.23812 47.8125 4.6875C47.8125 3.13687 46.5506 1.875 45 1.875C43.7794 1.875 42.7481 2.66156 42.36 3.75H40.3125C40.0641 3.75 39.825 3.84844 39.6497 4.02469L35.8997 7.77469C35.7234 7.95 35.625 8.18906 35.625 8.4375V14.2219L35.0053 14.8837C34.425 14.6916 33.8325 14.5331 33.2316 14.4094L32.6841 12.0638C32.5931 11.6728 32.2622 11.3831 31.8628 11.3438C31.5478 11.3128 31.245 11.3128 30.9375 11.2978V7.3275C32.0259 6.93937 32.8125 5.90812 32.8125 4.6875C32.8125 3.13687 31.5506 1.875 30 1.875C28.4494 1.875 27.1875 3.13687 27.1875 4.6875C27.1875 5.90812 27.9741 6.93937 29.0625 7.3275V11.2978C28.755 11.3137 28.4513 11.3128 28.1372 11.3438C27.7378 11.3831 27.4069 11.6728 27.3159 12.0638L26.7684 14.4094C26.1684 14.5331 25.575 14.6916 24.9956 14.8837L24.375 14.2209V8.4375C24.375 8.18906 24.2766 7.95 24.1003 7.77469L20.3503 4.02469C20.175 3.84844 19.9359 3.75 19.6875 3.75H17.64C17.2519 2.66156 16.2206 1.875 15 1.875C13.4494 1.875 12.1875 3.13687 12.1875 4.6875C12.1875 6.23812 13.4494 7.5 15 7.5C16.2206 7.5 17.2519 6.71344 17.64 5.625H19.2994L22.5 8.82562V12.8644C22.4287 12.8784 22.3566 12.8916 22.2872 12.9225C21.5644 13.2497 20.8688 13.6416 20.1872 14.0625H8.82562L5.625 10.8619V7.3275C6.71344 6.93937 7.5 5.90812 7.5 4.6875C7.5 3.13687 6.23812 1.875 4.6875 1.875C3.13687 1.875 1.875 3.13687 1.875 4.6875C1.875 5.90812 2.66156 6.93937 3.75 7.3275V11.25C3.75 11.4984 3.84844 11.7375 4.02469 11.9128L7.77469 15.6628C7.95 15.8391 8.18906 15.9375 8.4375 15.9375H18.7472L19.4034 18.0975C18.9441 18.5072 18.5063 18.9441 18.0975 19.4034L15.825 18.7125C15.4425 18.5953 15.0262 18.735 14.7919 19.0613C14.4291 19.5656 14.0906 20.0878 13.7784 20.625H10.1391C9.75187 19.5366 8.72062 18.75 7.5 18.75C5.94938 18.75 4.6875 20.0119 4.6875 21.5625C4.6875 23.1131 5.94938 24.375 7.5 24.375C8.72062 24.375 9.75187 23.5884 10.14 22.5H12.8644C12.8053 22.8103 12.8981 23.1347 13.1363 23.3578L14.8837 24.9947C14.6916 25.575 14.5331 26.1675 14.4094 26.7684L12.0638 27.3159C11.6728 27.4069 11.3831 27.7378 11.3438 28.1372C11.3128 28.4522 11.3128 28.7531 11.2969 29.0625H7.3275C6.93937 27.9741 5.90812 27.1875 4.6875 27.1875C3.13687 27.1875 1.875 28.4494 1.875 30C1.875 31.5506 3.13687 32.8125 4.6875 32.8125C5.90812 32.8125 6.93937 32.0259 7.3275 30.9375H11.2978C11.3137 31.2469 11.3138 31.5478 11.3447 31.8628C11.3841 32.2622 11.6738 32.5931 12.0647 32.6841L14.4103 33.2316C14.5341 33.8316 14.6925 34.425 14.8847 35.0044L13.1372 36.6413C12.8991 36.8644 12.8062 37.1888 12.8653 37.5H10.1409C9.75188 36.4116 8.72062 35.625 7.5 35.625C5.94938 35.625 4.6875 36.8869 4.6875 38.4375C4.6875 39.9881 5.94938 41.25 7.5 41.25C8.72062 41.25 9.75187 40.4634 10.14 39.375H13.7794C14.0906 39.9113 14.4281 40.4334 14.7919 40.9378C15.0262 41.2631 15.4388 41.4038 15.8259 41.2866L18.0984 40.5966C18.5081 41.0569 18.945 41.4937 19.4044 41.9025L18.7463 44.0625H8.4375C8.18906 44.0625 7.95 44.1609 7.77469 44.3372L4.02469 48.0872C3.84844 48.2625 3.75 48.5016 3.75 48.75V52.6725C2.66156 53.0606 1.875 54.0919 1.875 55.3125C1.875 56.8631 3.13687 58.125 4.6875 58.125C6.23812 58.125 7.5 56.8631 7.5 55.3125C7.5 54.0919 6.71344 53.0606 5.625 52.6725V49.1381L8.82562 45.9375H20.1872C20.8678 46.3575 21.5634 46.7503 22.2872 47.0775C22.3556 47.1084 22.4278 47.1225 22.5 47.1366V51.1744L19.2994 54.375H17.64C17.2519 53.2866 16.2206 52.5 15 52.5C13.4494 52.5 12.1875 53.7619 12.1875 55.3125C12.1875 56.8631 13.4494 58.125 15 58.125C16.2206 58.125 17.2519 57.3384 17.64 56.25H19.6875C19.9359 56.25 20.175 56.1516 20.3503 55.9753L24.1003 52.2253C24.2766 52.05 24.375 51.8109 24.375 51.5625V45.7781L24.9947 45.1162C25.575 45.3084 26.1675 45.4669 26.7684 45.5906L27.3159 47.9362C27.4069 48.3272 27.7378 48.6169 28.1372 48.6562C28.4522 48.6872 28.7531 48.6872 29.0625 48.7031V52.6734C27.9741 53.0616 27.1875 54.0928 27.1875 55.3134C27.1875 56.8641 28.4494 58.1259 30 58.1259C31.5506 58.1259 32.8125 56.8641 32.8125 55.3134C32.8125 54.0928 32.0259 53.0616 30.9375 52.6734V48.7031C31.2469 48.6872 31.5487 48.6872 31.8628 48.6562C32.2622 48.6169 32.5931 48.3272 32.6841 47.9362L33.2316 45.5906C33.8316 45.4669 34.425 45.3084 35.0044 45.1162L35.625 45.7791V51.5625C35.625 51.8109 35.7234 52.05 35.8997 52.2253L39.6497 55.9753C39.825 56.1516 40.0641 56.25 40.3125 56.25H42.36C42.7481 57.3384 43.7794 58.125 45 58.125C46.5506 58.125 47.8125 56.8631 47.8125 55.3125C47.8125 53.7619 46.5506 52.5 45 52.5C43.7794 52.5 42.7481 53.2866 42.36 54.375H40.7006L37.5 51.1744V47.1366C37.5713 47.1225 37.6434 47.1094 37.7128 47.0784C38.4356 46.7512 39.1312 46.3594 39.8128 45.9384H51.1744L54.375 49.1381V52.6725C53.2866 53.0606 52.5 54.0919 52.5 55.3125C52.5 56.8631 53.7619 58.125 55.3125 58.125C56.8631 58.125 58.125 56.8631 58.125 55.3125C58.125 54.0919 57.3384 53.0606 56.25 52.6725V48.75C56.25 48.5016 56.1516 48.2625 55.9753 48.0872L52.2253 44.3372C52.05 44.1609 51.8109 44.0625 51.5625 44.0625H41.2528L40.5966 41.9025C41.0569 41.4928 41.4937 41.0559 41.9025 40.5966L44.1741 41.2875C44.5575 41.4038 44.9738 41.2641 45.2072 40.9388C45.5709 40.4344 45.9094 39.9113 46.2206 39.375H49.86C50.2481 40.4634 51.2794 41.25 52.5 41.25C54.0506 41.25 55.3125 39.9881 55.3125 38.4375C55.3125 36.8869 54.0506 35.625 52.5 35.625C51.2794 35.625 50.2481 36.4116 49.86 37.5H47.1356C47.1947 37.1897 47.1019 36.8653 46.8638 36.6422L45.1162 35.0053C45.3084 34.425 45.4669 33.8325 45.5906 33.2316L47.9362 32.6841C48.3272 32.5931 48.6169 32.2622 48.6562 31.8628C48.6872 31.5478 48.6872 31.2469 48.7031 30.9375H52.6734C53.0616 32.0259 54.0928 32.8125 55.3134 32.8125C56.8641 32.8125 58.1259 31.5506 58.1259 30C58.1259 28.4494 56.8641 27.1875 55.3134 27.1875C54.0928 27.1875 53.0616 27.9741 52.6734 29.0625H48.7031C48.6872 28.7531 48.6872 28.4513 48.6562 28.1372C48.6169 27.7378 48.3272 27.4069 47.9362 27.3159L45.5906 26.7684C45.4669 26.1684 45.3084 25.575 45.1162 24.9956L46.8638 23.3587C47.1019 23.1356 47.1947 22.8113 47.1356 22.5H49.86C50.2481 23.5884 51.2794 24.375 52.5 24.375C54.0506 24.375 55.3125 23.1131 55.3125 21.5625C55.3125 20.0119 54.0506 18.75 52.5 18.75C51.2794 18.75 50.2481 19.5366 49.86 20.625H46.2206C45.9094 20.0888 45.5719 19.5666 45.2081 19.0622C44.9738 18.7369 44.5584 18.5963 44.1741 18.7134L41.9016 19.4034C41.4919 18.9431 41.055 18.5063 40.5956 18.0975L41.2519 15.9375H51.5625ZM55.3125 3.75C55.8291 3.75 56.25 4.17094 56.25 4.6875C56.25 5.20406 55.8291 5.625 55.3125 5.625C54.7959 5.625 54.375 5.20406 54.375 4.6875C54.375 4.17094 54.7959 3.75 55.3125 3.75ZM45 3.75C45.5166 3.75 45.9375 4.17094 45.9375 4.6875C45.9375 5.20406 45.5166 5.625 45 5.625C44.4834 5.625 44.0625 5.20406 44.0625 4.6875C44.0625 4.17094 44.4834 3.75 45 3.75ZM15 5.625C14.4834 5.625 14.0625 5.20406 14.0625 4.6875C14.0625 4.17094 14.4834 3.75 15 3.75C15.5166 3.75 15.9375 4.17094 15.9375 4.6875C15.9375 5.20406 15.5166 5.625 15 5.625ZM4.6875 3.75C5.20406 3.75 5.625 4.17094 5.625 4.6875C5.625 5.20406 5.20406 5.625 4.6875 5.625C4.17094 5.625 3.75 5.20406 3.75 4.6875C3.75 4.17094 4.17094 3.75 4.6875 3.75ZM7.5 22.5C6.98344 22.5 6.5625 22.0791 6.5625 21.5625C6.5625 21.0459 6.98344 20.625 7.5 20.625C8.01656 20.625 8.4375 21.0459 8.4375 21.5625C8.4375 22.0791 8.01656 22.5 7.5 22.5ZM7.5 39.375C6.98344 39.375 6.5625 38.9541 6.5625 38.4375C6.5625 37.9209 6.98344 37.5 7.5 37.5C8.01656 37.5 8.4375 37.9209 8.4375 38.4375C8.4375 38.9541 8.01656 39.375 7.5 39.375ZM4.6875 56.25C4.17094 56.25 3.75 55.8291 3.75 55.3125C3.75 54.7959 4.17094 54.375 4.6875 54.375C5.20406 54.375 5.625 54.7959 5.625 55.3125C5.625 55.8291 5.20406 56.25 4.6875 56.25ZM15 56.25C14.4834 56.25 14.0625 55.8291 14.0625 55.3125C14.0625 54.7959 14.4834 54.375 15 54.375C15.5166 54.375 15.9375 54.7959 15.9375 55.3125C15.9375 55.8291 15.5166 56.25 15 56.25ZM45 54.375C45.5166 54.375 45.9375 54.7959 45.9375 55.3125C45.9375 55.8291 45.5166 56.25 45 56.25C44.4834 56.25 44.0625 55.8291 44.0625 55.3125C44.0625 54.7959 44.4834 54.375 45 54.375ZM55.3125 56.25C54.7959 56.25 54.375 55.8291 54.375 55.3125C54.375 54.7959 54.7959 54.375 55.3125 54.375C55.8291 54.375 56.25 54.7959 56.25 55.3125C56.25 55.8291 55.8291 56.25 55.3125 56.25ZM52.5 37.5C53.0166 37.5 53.4375 37.9209 53.4375 38.4375C53.4375 38.9541 53.0166 39.375 52.5 39.375C51.9834 39.375 51.5625 38.9541 51.5625 38.4375C51.5625 37.9209 51.9834 37.5 52.5 37.5ZM52.5 20.625C53.0166 20.625 53.4375 21.0459 53.4375 21.5625C53.4375 22.0791 53.0166 22.5 52.5 22.5C51.9834 22.5 51.5625 22.0791 51.5625 21.5625C51.5625 21.0459 51.9834 20.625 52.5 20.625ZM30 3.75C30.5166 3.75 30.9375 4.17094 30.9375 4.6875C30.9375 5.20406 30.5166 5.625 30 5.625C29.4834 5.625 29.0625 5.20406 29.0625 4.6875C29.0625 4.17094 29.4834 3.75 30 3.75ZM4.6875 30.9375C4.17094 30.9375 3.75 30.5166 3.75 30C3.75 29.4834 4.17094 29.0625 4.6875 29.0625C5.20406 29.0625 5.625 29.4834 5.625 30C5.625 30.5166 5.20406 30.9375 4.6875 30.9375ZM30 56.25C29.4834 56.25 29.0625 55.8291 29.0625 55.3125C29.0625 54.7959 29.4834 54.375 30 54.375C30.5166 54.375 30.9375 54.7959 30.9375 55.3125C30.9375 55.8291 30.5166 56.25 30 56.25ZM55.3125 29.0625C55.8291 29.0625 56.25 29.4834 56.25 30C56.25 30.5166 55.8291 30.9375 55.3125 30.9375C54.7959 30.9375 54.375 30.5166 54.375 30C54.375 29.4834 54.7959 29.0625 55.3125 29.0625ZM40.8656 21.0741C41.1056 21.3666 41.4984 21.4847 41.8622 21.375L44.0662 20.7056C44.4403 21.2719 44.7806 21.8578 45.0825 22.4587L43.3884 24.045C43.1119 24.3038 43.0181 24.7041 43.1522 25.0594C43.4709 25.9078 43.7081 26.7947 43.8572 27.6956C43.9191 28.0688 44.1994 28.3687 44.5688 28.455L46.8441 28.9856C46.8647 29.3306 46.875 29.6691 46.875 30C46.875 30.3309 46.8647 30.6694 46.8431 31.0144L44.5678 31.545C44.1984 31.6312 43.9181 31.9312 43.8562 32.3044C43.7072 33.2053 43.4691 34.0922 43.1512 34.9406C43.0181 35.295 43.1119 35.6963 43.3875 35.955L45.0816 37.5412C44.7788 38.1441 44.4384 38.73 44.0653 39.2944L41.8622 38.6241C41.4994 38.5144 41.1066 38.6325 40.8656 38.925C40.2853 39.63 39.6338 40.2825 38.9259 40.8647C38.6334 41.1056 38.5144 41.4984 38.625 41.8613L39.2944 44.0653C38.7281 44.4394 38.1422 44.7797 37.5412 45.0816L35.955 43.3875C35.6953 43.1109 35.2931 43.0172 34.9406 43.1512C34.0922 43.47 33.2053 43.7072 32.3044 43.8562C31.9312 43.9181 31.6312 44.1984 31.545 44.5678L31.0144 46.8431C30.3253 46.8853 29.6747 46.8853 28.9856 46.8431L28.455 44.5678C28.3687 44.1984 28.0688 43.9181 27.6956 43.8562C26.7947 43.7072 25.9078 43.4691 25.0594 43.1512C24.7031 43.0172 24.3038 43.1119 24.045 43.3875L22.4578 45.0816C21.8559 44.7797 21.27 44.4394 20.7047 44.0653L21.375 41.8622C21.4856 41.4994 21.3666 41.1056 21.0741 40.8656C20.3691 40.2853 19.7166 39.6338 19.1344 38.9259C18.8934 38.6325 18.4997 38.5134 18.1378 38.625L15.9338 39.2944C15.5597 38.7281 15.2194 38.1422 14.9175 37.5412L16.6116 35.955C16.8881 35.6963 16.9819 35.2959 16.8478 34.9406C16.5291 34.0922 16.2919 33.2053 16.1428 32.3044C16.0809 31.9312 15.8006 31.6312 15.4312 31.545L13.1559 31.0144C13.1353 30.6694 13.125 30.3309 13.125 30C13.125 29.6691 13.1353 29.3306 13.1569 28.9856L15.4322 28.455C15.8016 28.3687 16.0819 28.0688 16.1437 27.6956C16.2928 26.7947 16.5309 25.9078 16.8488 25.0594C16.9819 24.705 16.8881 24.3038 16.6125 24.045L14.9184 22.4587C15.2213 21.8559 15.5616 21.27 15.9347 20.7056L18.1378 21.375C18.5016 21.4866 18.8934 21.3675 19.1344 21.0741C19.7147 20.3691 20.3672 19.7166 21.0741 19.1344C21.3666 18.8934 21.4856 18.5006 21.375 18.1378L20.7056 15.9338C21.2719 15.5597 21.8578 15.2194 22.4587 14.9175L24.045 16.6116C24.3038 16.8872 24.705 16.9809 25.0594 16.8478C25.9078 16.5291 26.7947 16.2919 27.6956 16.1428C28.0688 16.0809 28.3687 15.8006 28.455 15.4312L28.9856 13.1559C29.6747 13.1138 30.3253 13.1138 31.0144 13.1559L31.545 15.4312C31.6312 15.8006 31.9312 16.0809 32.3044 16.1428C33.2053 16.2919 34.0922 16.53 34.9406 16.8478C35.295 16.98 35.6953 16.8872 35.955 16.6116L37.5422 14.9175C38.1441 15.2194 38.73 15.5597 39.2953 15.9338L38.625 18.1369C38.5144 18.4997 38.6334 18.8934 38.9259 19.1334C39.6309 19.7147 40.2834 20.3672 40.8656 21.0741Z" fill="#0F62FE"/>
<path d="M30 19.6875C25.8066 19.6875 21.5625 20.9756 21.5625 23.4375V37.5C21.5625 39.9619 25.8066 41.25 30 41.25C34.1934 41.25 38.4375 39.9619 38.4375 37.5V23.4375C38.4375 20.9756 34.1934 19.6875 30 19.6875ZM30 39.375C25.7372 39.375 23.4375 38.0447 23.4375 37.5V35.25C25.065 36.1153 27.5381 36.5625 30 36.5625C32.4619 36.5625 34.935 36.1153 36.5625 35.25V37.5C36.5625 38.0447 34.2628 39.375 30 39.375ZM30 34.6875C25.7372 34.6875 23.4375 33.3572 23.4375 32.8125V30.5625C25.065 31.4278 27.5381 31.875 30 31.875C32.4619 31.875 34.935 31.4278 36.5625 30.5625V32.8125C36.5625 33.3572 34.2628 34.6875 30 34.6875ZM30 30C25.7372 30 23.4375 28.6697 23.4375 28.125V25.875C25.065 26.7403 27.5381 27.1875 30 27.1875C32.4619 27.1875 34.935 26.7403 36.5625 25.875V28.125C36.5625 28.6697 34.2628 30 30 30ZM30 25.3125C25.7372 25.3125 23.4375 23.9822 23.4375 23.4375C23.4375 22.8928 25.7372 21.5625 30 21.5625C34.2628 21.5625 36.5625 22.8928 36.5625 23.4375C36.5625 23.9822 34.2628 25.3125 30 25.3125Z" fill="#0F62FE"/>
</svg>

<svg xmlns="http://www.w3.org/2000/svg" width="60" height="60" fill="none" viewBox="0 0 60 60"><path fill="#0f62fe" d="M51.563 15.938a.94.94 0 0 0 .662-.275l3.75-3.75a.94.94 0 0 0 .275-.663V7.327a2.81 2.81 0 0 0 1.875-2.64 2.816 2.816 0 0 0-2.812-2.812A2.816 2.816 0 0 0 52.5 4.688a2.81 2.81 0 0 0 1.875 2.64v3.534l-3.2 3.2H39.812a19 19 0 0 0-2.1-1.14 1 1 0 0 0-.213-.058V8.826l3.2-3.201h1.66A2.81 2.81 0 0 0 45 7.5a2.816 2.816 0 0 0 2.813-2.812A2.816 2.816 0 0 0 45 1.874a2.81 2.81 0 0 0-2.64 1.875h-2.047a.94.94 0 0 0-.663.275l-3.75 3.75a.94.94 0 0 0-.275.662v5.785l-.62.662a16 16 0 0 0-1.773-.475l-.548-2.345a.94.94 0 0 0-.821-.72c-.315-.031-.618-.031-.925-.046v-3.97a2.81 2.81 0 0 0 1.875-2.64A2.816 2.816 0 0 0 30 1.874a2.816 2.816 0 0 0-2.812 2.813 2.81 2.81 0 0 0 1.875 2.64v3.97c-.308.016-.612.015-.926.046-.4.04-.73.329-.821.72l-.548 2.345q-.902.187-1.772.475l-.621-.663V8.438a.94.94 0 0 0-.275-.663l-3.75-3.75a.94.94 0 0 0-.663-.275H17.64A2.81 2.81 0 0 0 15 1.875a2.816 2.816 0 0 0-2.812 2.813A2.816 2.816 0 0 0 15 7.5a2.81 2.81 0 0 0 2.64-1.875h1.66l3.2 3.2v4.04a1 1 0 0 0-.213.057c-.723.328-1.418.72-2.1 1.14H8.826l-3.201-3.2V7.327A2.81 2.81 0 0 0 7.5 4.688a2.816 2.816 0 0 0-2.812-2.812 2.816 2.816 0 0 0-2.813 2.813 2.81 2.81 0 0 0 1.875 2.64v3.922c0 .248.098.488.275.663l3.75 3.75a.94.94 0 0 0 .662.274h10.31l.656 2.16c-.459.41-.897.847-1.305 1.306l-2.273-.69a.935.935 0 0 0-1.033.348 19 19 0 0 0-1.014 1.564H10.14A2.81 2.81 0 0 0 7.5 18.75a2.816 2.816 0 0 0-2.812 2.813A2.816 2.816 0 0 0 7.5 24.375a2.81 2.81 0 0 0 2.64-1.875h2.724a.93.93 0 0 0 .272.858l1.748 1.637a16 16 0 0 0-.475 1.773l-2.345.548a.94.94 0 0 0-.72.821c-.031.315-.031.616-.047.925h-3.97a2.81 2.81 0 0 0-2.64-1.875A2.816 2.816 0 0 0 1.876 30a2.816 2.816 0 0 0 2.813 2.813 2.81 2.81 0 0 0 2.64-1.876h3.97c.016.31.016.61.047.926.04.4.329.73.72.821l2.345.548q.186.902.475 1.772l-1.748 1.637a.93.93 0 0 0-.272.859h-2.724A2.81 2.81 0 0 0 7.5 35.625a2.816 2.816 0 0 0-2.812 2.813A2.816 2.816 0 0 0 7.5 41.25a2.81 2.81 0 0 0 2.64-1.875h3.64q.466.805 1.012 1.563a.94.94 0 0 0 1.034.349l2.272-.69q.616.691 1.306 1.306l-.658 2.16H8.438a.94.94 0 0 0-.663.274l-3.75 3.75a.94.94 0 0 0-.275.663v3.922a2.81 2.81 0 0 0-1.875 2.64 2.816 2.816 0 0 0 2.813 2.813A2.816 2.816 0 0 0 7.5 55.313a2.81 2.81 0 0 0-1.875-2.64v-3.535l3.2-3.2h11.362c.68.42 1.376.812 2.1 1.14.069.03.14.044.213.059v4.037l-3.2 3.201h-1.66A2.81 2.81 0 0 0 15 52.5a2.816 2.816 0 0 0-2.812 2.813A2.816 2.816 0 0 0 15 58.125a2.81 2.81 0 0 0 2.64-1.875h2.047a.94.94 0 0 0 .663-.275l3.75-3.75a.94.94 0 0 0 .275-.663v-5.784l.62-.662q.87.288 1.773.475l.548 2.345c.09.391.422.68.821.72.315.031.616.031.925.047v3.97a2.81 2.81 0 0 0-1.875 2.64A2.816 2.816 0 0 0 30 58.126a2.816 2.816 0 0 0 2.813-2.813 2.81 2.81 0 0 0-1.876-2.64v-3.97c.31-.016.612-.016.926-.047.4-.04.73-.329.821-.72l.548-2.345q.902-.187 1.772-.475l.621.663v5.783c0 .249.098.488.275.663l3.75 3.75a.94.94 0 0 0 .663.275h2.047A2.81 2.81 0 0 0 45 58.125a2.816 2.816 0 0 0 2.813-2.812A2.816 2.816 0 0 0 45 52.5a2.81 2.81 0 0 0-2.64 1.875H40.7l-3.2-3.2v-4.038c.071-.014.143-.028.213-.059a19 19 0 0 0 2.1-1.14h11.361l3.201 3.2v3.535a2.81 2.81 0 0 0-1.875 2.64 2.816 2.816 0 0 0 2.813 2.812 2.816 2.816 0 0 0 2.812-2.812 2.81 2.81 0 0 0-1.875-2.64V48.75a.94.94 0 0 0-.275-.663l-3.75-3.75a.94.94 0 0 0-.663-.275h-10.31l-.655-2.16q.691-.616 1.306-1.305l2.271.69a.94.94 0 0 0 1.033-.348q.546-.759 1.014-1.564h3.639a2.81 2.81 0 0 0 2.64 1.875 2.816 2.816 0 0 0 2.813-2.812 2.816 2.816 0 0 0-2.813-2.813 2.81 2.81 0 0 0-2.64 1.875h-2.724a.93.93 0 0 0-.272-.858l-1.748-1.637q.288-.87.475-1.773l2.345-.548a.94.94 0 0 0 .72-.821c.031-.315.031-.616.047-.925h3.97a2.81 2.81 0 0 0 2.64 1.875A2.816 2.816 0 0 0 58.126 30a2.816 2.816 0 0 0-2.813-2.812 2.81 2.81 0 0 0-2.64 1.875h-3.97c-.016-.31-.016-.612-.047-.926a.94.94 0 0 0-.72-.821l-2.345-.548q-.187-.902-.475-1.772l1.748-1.637a.93.93 0 0 0 .272-.859h2.724a2.81 2.81 0 0 0 2.64 1.875 2.816 2.816 0 0 0 2.813-2.812A2.816 2.816 0 0 0 52.5 18.75a2.81 2.81 0 0 0-2.64 1.875h-3.64a19 19 0 0 0-1.012-1.563.94.94 0 0 0-1.034-.349l-2.272.69q-.616-.691-1.306-1.305l.656-2.16zm3.75-12.188a.938.938 0 0 1 0 1.875.94.94 0 0 1-.938-.937c0-.517.42-.938.938-.938M45 3.75a.939.939 0 0 1 0 1.875.94.94 0 0 1-.937-.937c0-.517.42-.938.937-.938M15 5.625a.94.94 0 0 1-.937-.937.938.938 0 0 1 1.875 0 .94.94 0 0 1-.938.937M4.688 3.75a.938.938 0 0 1 0 1.875.94.94 0 0 1-.938-.937c0-.517.42-.938.938-.938M7.5 22.5a.94.94 0 0 1-.937-.937.938.938 0 0 1 1.875 0 .94.94 0 0 1-.938.937m0 16.875a.94.94 0 0 1-.937-.937.938.938 0 0 1 1.875 0 .94.94 0 0 1-.938.937M4.688 56.25a.94.94 0 0 1-.938-.937.939.939 0 0 1 1.875 0c0 .516-.42.937-.937.937m10.312 0a.94.94 0 0 1-.937-.937.938.938 0 0 1 1.875 0 .94.94 0 0 1-.938.937m30-1.875a.939.939 0 0 1 0 1.875.94.94 0 0 1-.937-.937c0-.517.42-.938.937-.938m10.313 1.875a.94.94 0 0 1-.938-.937.939.939 0 0 1 1.875 0c0 .516-.42.937-.937.937M52.5 37.5a.939.939 0 0 1 0 1.875.94.94 0 0 1-.937-.937c0-.517.42-.938.937-.938m0-16.875a.939.939 0 0 1 0 1.875.94.94 0 0 1-.937-.937c0-.517.42-.938.937-.938M30 3.75a.939.939 0 0 1 0 1.875.94.94 0 0 1-.937-.937c0-.517.42-.938.937-.938M4.688 30.938A.94.94 0 0 1 3.75 30a.938.938 0 1 1 .938.938M30 56.25a.94.94 0 0 1-.937-.937.938.938 0 0 1 1.875 0 .94.94 0 0 1-.938.937m25.313-27.187a.938.938 0 0 1 0 1.875.94.94 0 0 1-.938-.938c0-.517.42-.937.938-.937m-14.447-7.989c.24.293.632.41.996.301l2.204-.67q.563.851 1.017 1.754l-1.695 1.586a.94.94 0 0 0-.236 1.014c.319.849.556 1.736.705 2.637a.94.94 0 0 0 .712.759l2.275.53a17 17 0 0 1 0 2.03l-2.276.53a.94.94 0 0 0-.712.76 14 14 0 0 1-.705 2.636.94.94 0 0 0 .236 1.014l1.695 1.586a17 17 0 0 1-1.017 1.753l-2.203-.67a.94.94 0 0 0-.996.301 14 14 0 0 1-1.94 1.94.94.94 0 0 0-.301.996l.67 2.204q-.852.563-1.754 1.017l-1.586-1.694a.94.94 0 0 0-1.014-.237 14 14 0 0 1-2.637.705.94.94 0 0 0-.759.712l-.53 2.275c-.69.042-1.34.042-2.03 0l-.53-2.275a.94.94 0 0 0-.76-.712 14 14 0 0 1-2.636-.705.94.94 0 0 0-1.014.236l-1.587 1.695a17 17 0 0 1-1.753-1.017l.67-2.203a.94.94 0 0 0-.3-.996 14 14 0 0 1-1.94-1.94.93.93 0 0 0-.997-.301l-2.204.67a17 17 0 0 1-1.016-1.754l1.694-1.586a.94.94 0 0 0 .236-1.014 14 14 0 0 1-.705-2.637.94.94 0 0 0-.712-.759l-2.275-.53a17 17 0 0 1 0-2.03l2.276-.53a.94.94 0 0 0 .712-.76 14 14 0 0 1 .705-2.636.94.94 0 0 0-.236-1.014l-1.695-1.586q.456-.906 1.017-1.753l2.203.669a.93.93 0 0 0 .996-.3 14.3 14.3 0 0 1 1.94-1.94.94.94 0 0 0 .301-.997l-.67-2.204a17 17 0 0 1 1.754-1.016l1.586 1.694a.94.94 0 0 0 1.014.236 14 14 0 0 1 2.637-.705.94.94 0 0 0 .759-.712l.53-2.275a16 16 0 0 1 2.03 0l.53 2.275c.086.37.386.65.76.712a14 14 0 0 1 2.636.705.94.94 0 0 0 1.014-.236l1.587-1.694q.904.453 1.753 1.016l-.67 2.203a.94.94 0 0 0 .3.996 14.3 14.3 0 0 1 1.94 1.941"/><path fill="#0f62fe" d="M30 19.688c-4.193 0-8.437 1.288-8.437 3.75V37.5c0 2.462 4.244 3.75 8.437 3.75s8.438-1.288 8.438-3.75V23.438c0-2.462-4.245-3.75-8.438-3.75m0 19.687c-4.263 0-6.562-1.33-6.562-1.875v-2.25c1.627.865 4.1 1.313 6.562 1.313s4.935-.448 6.563-1.313v2.25c0 .545-2.3 1.875-6.563 1.875m0-4.687c-4.263 0-6.562-1.33-6.562-1.876v-2.25c1.627.866 4.1 1.313 6.562 1.313s4.935-.447 6.563-1.312v2.25c0 .544-2.3 1.874-6.563 1.874M30 30c-4.263 0-6.562-1.33-6.562-1.875v-2.25c1.627.865 4.1 1.313 6.562 1.313s4.935-.448 6.563-1.313v2.25c0 .545-2.3 1.875-6.563 1.875m0-4.687c-4.263 0-6.562-1.33-6.562-1.875s2.3-1.875 6.562-1.875 6.563 1.33 6.563 1.875-2.3 1.875-6.563 1.875"/></svg>
